static/img/kroki/1dff9cb1d95b490ad9b09dff0917d313.svg

<?xml version="1.0" encoding="us-ascii" standalone="no"?><svg xmlns="http://www.w3.org/2000/svg" xmlns:xlink="http://www.w3.org/1999/xlink" contentStyleType="text/css" height="213px" preserveAspectRatio="none" style="width:349px;height:213px;" version="1.1" viewBox="0 0 349 213" width="349px" zoomAndPan="magnify"><defs/><g><!--class posthog_event--><g id="elem_posthog_event"><rect codeLine="23" fill="#3D176E" height="39.7891" id="posthog_event" rx="2.5" ry="2.5" style="stroke:#000D19;stroke-width:0.5;" width="165" x="110.5" y="167.79"/><ellipse cx="125.5" cy="187.6845" fill="#ADD1B2" rx="11" ry="11" style="stroke:#181818;stroke-width:1.0;"/><path d="M128.4688,193.3252 Q127.8906,193.622 127.25,193.7627 Q126.6094,193.9189 125.9063,193.9189 Q123.4063,193.9189 122.0781,192.2783 Q120.7656,190.622 120.7656,187.497 Q120.7656,184.372 122.0781,182.7158 Q123.4063,181.0595 125.9063,181.0595 Q126.6094,181.0595 127.25,181.2158 Q127.9063,181.372 128.4688,181.6689 L128.4688,184.3877 Q127.8438,183.8095 127.25,183.5439 Q126.6563,183.2627 126.0313,183.2627 Q124.6875,183.2627 124,184.3408 Q123.3125,185.4033 123.3125,187.497 Q123.3125,189.5908 124,190.6689 Q124.6875,191.7314 126.0313,191.7314 Q126.6563,191.7314 127.25,191.4658 Q127.8438,191.1845 128.4688,190.6064 L128.4688,193.3252 Z " fill="#000000"/><text fill="#D9B8FF" font-family="Helvetica" font-size="17" lengthAdjust="spacing" textLength="123" x="144.5" y="193.5698">posthog_event</text></g><!--class posthog_resource--><g id="elem_posthog_resource"><rect codeLine="26" fill="#3D176E" height="39.7891" id="posthog_resource" rx="2.5" ry="2.5" style="stroke:#000D19;stroke-width:0.5;" width="188" x="7" y="7"/><ellipse cx="22" cy="26.8945" fill="#ADD1B2" rx="11" ry="11" style="stroke:#181818;stroke-width:1.0;"/><path d="M24.9688,32.5352 Q24.3906,32.832 23.75,32.9727 Q23.1094,33.1289 22.4063,33.1289 Q19.9063,33.1289 18.5781,31.4883 Q17.2656,29.832 17.2656,26.707 Q17.2656,23.582 18.5781,21.9258 Q19.9063,20.2695 22.4063,20.2695 Q23.1094,20.2695 23.75,20.4258 Q24.4063,20.582 24.9688,20.8789 L24.9688,23.5977 Q24.3438,23.0195 23.75,22.7539 Q23.1563,22.4727 22.5313,22.4727 Q21.1875,22.4727 20.5,23.5508 Q19.8125,24.6133 19.8125,26.707 Q19.8125,28.8008 20.5,29.8789 Q21.1875,30.9414 22.5313,30.9414 Q23.1563,30.9414 23.75,30.6758 Q24.3438,30.3945 24.9688,29.8164 L24.9688,32.5352 Z " fill="#000000"/><text fill="#D9B8FF" font-family="Helvetica" font-size="17" lengthAdjust="spacing" textLength="146" x="41" y="32.7798">posthog_resource</text></g><!--class resource--><g id="elem_resource"><rect codeLine="29" fill="#3D176E" height="39.7891" id="resource" rx="2.5" ry="2.5" style="stroke:#000D19;stroke-width:0.5;" width="113" x="229.5" y="7"/><ellipse cx="244.5" cy="26.8945" fill="#ADD1B2" rx="11" ry="11" style="stroke:#181818;stroke-width:1.0;"/><path d="M247.4688,32.5352 Q246.8906,32.832 246.25,32.9727 Q245.6094,33.1289 244.9063,33.1289 Q242.4063,33.1289 241.0781,31.4883 Q239.7656,29.832 239.7656,26.707 Q239.7656,23.582 241.0781,21.9258 Q242.4063,20.2695 244.9063,20.2695 Q245.6094,20.2695 246.25,20.4258 Q246.9063,20.582 247.4688,20.8789 L247.4688,23.5977 Q246.8438,23.0195 246.25,22.7539 Q245.6563,22.4727 245.0313,22.4727 Q243.6875,22.4727 243,23.5508 Q242.3125,24.6133 242.3125,26.707 Q242.3125,28.8008 243,29.8789 Q243.6875,30.9414 245.0313,30.9414 Q245.6563,30.9414 246.25,30.6758 Q246.8438,30.3945 247.4688,29.8164 L247.4688,32.5352 Z " fill="#000000"/><text fill="#D9B8FF" font-family="Helvetica" font-size="17" lengthAdjust="spacing" textLength="71" x="263.5" y="32.7798">resource</text></g><!--reverse link posthog_resource to posthog_event--><g id="link_posthog_resource_posthog_event"><path codeLine="32" d="M121.1227,62.6253 C138.8027,93.1453 164.16,136.9 181.86,167.46 " fill="none" id="posthog_resource-backto-posthog_event" style="stroke:#FFAF37;stroke-width:2.0;"/><polygon fill="none" points="112.1,47.05,115.9309,65.6329,126.3145,59.6178,112.1,47.05" style="stroke:#FFAF37;stroke-width:2.0;"/></g><!--reverse link resource to posthog_event--><g id="link_resource_posthog_event"><path codeLine="33" d="M265.685,62.5832 C247.815,93.1032 222.16,136.9 204.26,167.46 " fill="none" id="resource-backto-posthog_event" style="stroke:#FFAF37;stroke-width:2.0;"/><polygon fill="none" points="274.78,47.05,260.5073,59.5516,270.8628,65.6149,274.78,47.05" style="stroke:#FFAF37;stroke-width:2.0;"/></g><!--SRC=[XP9DRuCm38Rl_8f8FIF1geqYxT8XJTkbcjRTfq0SY80OEQ5Lz_7VLzPj2c6bLp-FxDUMAoM0GTlP0skXpO5CO6gbEqwyPMiYt6VO8B65b5mk4n_UexONXGrlWJr0imEh2kuRBvKgQWt6i2i7tV6YBWbxBKxjBN5jZWYqTQoiuSQihIMLznQSC2BDLrBwfjzqiHHnSWCJ3Ka0_IXH58auzPMBesRt_ZEswWrOx1vjWnOcCISZlgtPb8FXX9mi-ilFPdpYGYXTickdzdpAH1feLDzMNE1-i2LlZ3l6M210U-WWcsm5wKh8v5_vyPmS5CFfM8V6LbY-mkxu3-mz23uzG62mfm9SDgvDpDkFC0p7dODP-0K0]--></g></svg>

<svg xmlns="http://www.w3.org/2000/svg" width="349" height="213" viewBox="0 0 349 213"><rect width="165" height="39.789" x="110.5" y="167.79" fill="#3D176E" rx="2.5" ry="2.5" style="stroke:#000d19;stroke-width:.5"/><circle cx="125.5" cy="187.685" r="11" fill="#ADD1B2" style="stroke:#181818;stroke-width:1"/><path d="M128.469 193.325q-.578.297-1.219.438-.64.156-1.344.156-2.5 0-3.828-1.64-1.312-1.657-1.312-4.782t1.312-4.781q1.328-1.656 3.828-1.656.703 0 1.344.156.656.156 1.219.453v2.719q-.625-.578-1.219-.844-.594-.281-1.219-.281-1.344 0-2.031 1.078-.687 1.062-.687 3.156t.687 3.172q.688 1.062 2.031 1.062.625 0 1.219-.265.594-.281 1.219-.86z"/><text x="144.5" y="193.57" fill="#D9B8FF" font-family="Helvetica" font-size="17" textLength="123">posthog_event</text><rect width="188" height="39.789" x="7" y="7" fill="#3D176E" rx="2.5" ry="2.5" style="stroke:#000d19;stroke-width:.5"/><circle cx="22" cy="26.895" r="11" fill="#ADD1B2" style="stroke:#181818;stroke-width:1"/><path d="M24.969 32.535q-.578.297-1.219.438-.64.156-1.344.156-2.5 0-3.828-1.64-1.312-1.657-1.312-4.782t1.312-4.781q1.328-1.656 3.828-1.656.703 0 1.344.156.656.156 1.219.453v2.719q-.625-.578-1.219-.844-.594-.281-1.219-.281-1.343 0-2.031 1.078-.687 1.062-.687 3.156t.687 3.172q.688 1.062 2.031 1.062.625 0 1.219-.265.594-.281 1.219-.86z"/><text x="41" y="32.78" fill="#D9B8FF" font-family="Helvetica" font-size="17" textLength="146">posthog_resource</text><rect width="113" height="39.789" x="229.5" y="7" fill="#3D176E" rx="2.5" ry="2.5" style="stroke:#000d19;stroke-width:.5"/><circle cx="244.5" cy="26.895" r="11" fill="#ADD1B2" style="stroke:#181818;stroke-width:1"/><path d="M247.469 32.535q-.578.297-1.219.438-.64.156-1.344.156-2.5 0-3.828-1.64-1.312-1.657-1.312-4.782t1.312-4.781q1.328-1.656 3.828-1.656.703 0 1.344.156.656.156 1.219.453v2.719q-.625-.578-1.219-.844-.594-.281-1.219-.281-1.344 0-2.031 1.078-.687 1.062-.687 3.156t.687 3.172q.688 1.062 2.031 1.062.625 0 1.219-.265.594-.281 1.219-.86z"/><text x="263.5" y="32.78" fill="#D9B8FF" font-family="Helvetica" font-size="17" textLength="71">resource</text><path fill="none" d="M121.123 62.625c17.68 30.52 43.037 74.275 60.737 104.835M112.1 47.05l3.83 18.583 10.384-6.015z" style="stroke:#ffaf37;stroke-width:2"/><g fill="none"><path d="M265.685 62.583c-17.87 30.52-43.525 74.317-61.425 104.877" style="stroke:#ffaf37;stroke-width:2"/><path d="m274.78 47.05-14.273 12.502 10.356 6.063z" style="stroke:#ffaf37;stroke-width:2"/></g></svg>
